X:1
T:Glenlogie
M:3/4
L:1/4
K:Bb
 G3/4 G/4| c ce/2-d/2| e G G| c c e| d2 e| G3/2 F/2E/2-D/2| C D C3/4 E/4|\
 G G(3A3.99999962500005/11.9999985000002A3.99999962500005/11.9999985000002B3.99999962500005/11.9999985000002A3.99999962500005/11.9999985000002B3.99999962500005/11.9999985000002c3.99999962500005/11.9999985000002|\
 c2 c| G3/2 E/2 D| C D C3/4 E/4| G G A/4- B3/4| c2 G/2G/2| c c e/4- d3/4|\
 e G G3/4- A/4| c c e| d3/2 z/4 d/4 e3/4 e/4| G3/2 F/2 E3/4- D/4| C D C3/4 E/4|\
 G G A/4- c3/4| c3/2 c/2 A/4 c3/4| G3/2 E/2 D3/4- C/4| C D C3/4 E/4|\
 G G A/4- c3/4| c2||
